SVG_Azure_Grouped/Security/Azure Firewall Policy.svg

<?xml version="1.0" encoding="UTF-8" standalone="no"?>
<!-- Generated by Microsoft Visio, SVG Export Azure Firewall Policy.svg Page-1 -->

<svg
   xmlns:dc="http://purl.org/dc/elements/1.1/"
   xmlns:cc="http://creativecommons.org/ns#"
   xmlns:rdf="http://www.w3.org/1999/02/22-rdf-syntax-ns#"
   xmlns:svg="http://www.w3.org/2000/svg"
   xmlns="http://www.w3.org/2000/svg"
   xmlns:sodipodi="http://sodipodi.sourceforge.net/DTD/sodipodi-0.dtd"
   xmlns:inkscape="http://www.inkscape.org/namespaces/inkscape"
   width="0.78734249in"
   height="0.55127364in"
   viewBox="0 0 56.688903 39.691805"
   xml:space="preserve"
   class="st7"
   version="1.1"
   id="svg64"
   sodipodi:docname="Azure Firewall Policy.svg"
   style="font-size:12px;overflow:visible;color-interpolation-filters:sRGB;fill:none;fill-rule:evenodd;stroke-linecap:square;stroke-miterlimit:3"
   inkscape:version="0.92.5 (2060ec1f9f, 2020-04-08)"><metadata
   id="metadata70"><rdf:RDF><cc:Work
       rdf:about=""><dc:format>image/svg+xml</dc:format><dc:type
         rdf:resource="http://purl.org/dc/dcmitype/StillImage" /></cc:Work></rdf:RDF></metadata><defs
   id="defs68" /><sodipodi:namedview
   pagecolor="#ffffff"
   bordercolor="#666666"
   borderopacity="1"
   objecttolerance="10"
   gridtolerance="10"
   guidetolerance="10"
   inkscape:pageopacity="0"
   inkscape:pageshadow="2"
   inkscape:window-width="640"
   inkscape:window-height="480"
   id="namedview66"
   showgrid="false"
   inkscape:zoom="1.780343"
   inkscape:cx="33.556654"
   inkscape:cy="20.927055"
   inkscape:window-x="0"
   inkscape:window-y="0"
   inkscape:window-maximized="0"
   inkscape:current-layer="svg64" />
	<style
   type="text/css"
   id="style2">
	<![CDATA[
		.st1 {fill:#e62323;stroke:none;stroke-linecap:butt;stroke-width:25.7179}
		.st2 {fill:#ff7381;stroke:none;stroke-linecap:butt;stroke-width:25.7179}
		.st3 {fill:#e62323;stroke:none;stroke-linecap:butt;stroke-width:27.6595}
		.st4 {fill:#821010;stroke:none;stroke-linecap:butt;stroke-width:25.7179}
		.st5 {fill:#e6e6e6;stroke:none;stroke-linecap:butt;stroke-width:16.7108}
		.st6 {fill:#666666;stroke:none;stroke-linecap:butt;stroke-width:16.7108}
		.st7 {fill:none;fill-rule:evenodd;font-size:12px;overflow:visible;stroke-linecap:square;stroke-miterlimit:3}
	]]>
	</style>

	<g
   id="g62"
   transform="translate(-25.7179,-25.713221)">
		<title
   id="title4">Page-1</title>
		<g
   id="group16980-1"
   transform="translate(25.7179,-34.0157)">
			<title
   id="title6">Azure Firewall Policy.16980</title>
			<g
   id="group16981-2">
				<title
   id="title8">layer1</title>
				<g
   id="shape16982-3"
   transform="translate(2.91599,-30.7318)">
					<title
   id="title10">path10-7</title>
					<path
   d="M 13.66,93.15 H 0.05 L 0,99.38 13.88,99.42 Z"
   class="st1"
   id="path12"
   inkscape:connector-curvature="0"
   style="fill:#e62323;stroke:none;stroke-width:25.71789932;stroke-linecap:butt" />
				</g>
				<g
   id="shape16983-5"
   transform="translate(18.4372,-30.4848)">
					<title
   id="title15">path12-3</title>
					<path
   d="M 13.79,92.9 H 0.18 L 0,99.1 13.97,99.42 Z"
   class="st2"
   id="path17"
   inkscape:connector-curvature="0"
   style="fill:#ff7381;stroke:none;stroke-width:25.71789932;stroke-linecap:butt" />
				</g>
				<g
   id="shape16984-7"
   transform="translate(2.96955,-23.2929)">
					<title
   id="title20">path14-3</title>
					<path
   d="M 44.9,85.71 H 31.3 l -0.04,6.61 14.42,-0.11 -0.59,-6.5 z M 5.67,93.57 H 0 v 5.85 h 5.67 v -5.84 z"
   class="st1"
   id="path22"
   inkscape:connector-curvature="0"
   style="fill:#e62323;stroke:none;stroke-width:25.71789932;stroke-linecap:butt" />
				</g>
				<g
   id="shape16985-9"
   transform="translate(10.6786,-23.2929)">
					<title
   id="title25">path16-9</title>
					<path
   d="m 37.2,93.57 h -5.67 v 5.85 h 5.67 v -5.84 z m -23.6,0 H 0 v 5.85 h 13.61 v -5.84 z"
   class="st2"
   id="path27"
   inkscape:connector-curvature="0"
   style="fill:#ff7381;stroke:none;stroke-width:25.71789932;stroke-linecap:butt" />
				</g>
				<g
   id="shape16986-11"
   transform="translate(2.72905,-15.1657)">
					<title
   id="title30">path18-1</title>
					<path
   d="M 37.2,85.45 H 23.6 v 5.84 l 15.06,0.13 -0.62,-5.99 z M 13.83,92.94 0.2,92.96 0,99.42 13.92,99.38 14.27,92.94 Z"
   class="st1"
   id="path32"
   inkscape:connector-curvature="0"
   style="fill:#e62323;stroke:none;stroke-width:25.71789932;stroke-linecap:butt" />
				</g>
				<g
   id="shape16987-13"
   transform="translate(18.3485,-15.0699)">
					<title
   id="title35">path20-0</title>
					<path
   d="M 13.88,93.11 0.12,92.89 0,99.36 14.1,99.42 Z"
   class="st2"
   id="path37"
   inkscape:connector-curvature="0"
   style="fill:#ff7381;stroke:none;stroke-width:25.71789932;stroke-linecap:butt" />
				</g>
				<g
   id="shape16988-15"
   transform="translate(33.8802,-15.1651)">
					<title
   id="title40">path22-5</title>
					<rect
   x="0"
   y="92.963402"
   width="14.2523"
   height="6.4558902"
   class="st3"
   id="rect42"
   style="fill:#e62323;stroke:none;stroke-width:27.65950012;stroke-linecap:butt" />
				</g>
				<g
   id="shape16989-17"
   transform="translate(0,-12.6506)">
					<title
   id="title45">path8-5</title>
					<path
   d="M 48.38,99.42 A 1.90759,1.96909 -180 0 0 50.33,97.5 V 74.3 A 1.90759,1.96909 -180 0 0 48.38,72.38 H 1.95 A 1.90513,1.96655 -180 0 0 0,74.3 v 23.2 a 1.90513,1.96655 -180 0 0 1.95,1.92 z M 47.87,88.77 h -5.66 v -5.84 h 5.66 v 5.85 z M 34.45,75.07 h 13.61 v 6.04 H 34.45 Z m 5.67,7.86 v 5.84 H 26.33 v -5.84 z m -21.5,-7.86 h 13.6 v 6.04 h -13.6 z m 5.66,7.86 v 5.84 H 10.68 V 82.93 Z M 2.97,75.07 h 13.61 v 6.04 H 2.97 Z m 0,7.86 h 5.62 v 5.84 H 2.97 Z M 16.58,96.68 H 2.97 v -5.99 h 13.61 z m 15.64,0 h -13.6 v -5.99 h 13.6 z m 2.05,0 v -5.99 h 13.6 v 5.9 z"
   class="st4"
   id="path47"
   inkscape:connector-curvature="0"
   style="fill:#821010;stroke:none;stroke-width:25.71789932;stroke-linecap:butt" />
				</g>
				<g
   id="shape16990-19"
   transform="translate(29.5389)">
					<title
   id="title50">path18</title>
					<path
   d="m 27.15,78.71 v 2.96 H 0 v 16.94 a 0.814622,0.840884 -180 0 0 0.844942,0.809555 L 26.22,99.42 a 0.843373,0.870563 -180 0 0 0.875307,-0.807933 L 27.09,78.71 Z M 2.17,85.97 a 1.11811,1.15415 0 1 1 1.12,1.15 1.14526,1.18218 0 0 1 -1.12,-1.15 z m 1.12,10.46 a 1.11651,1.15251 0 1 1 1.12,-1.15 1.14686,1.18383 0 0 1 -1.12,1.15 z m 0,-4.92 a 1.14526,1.18218 0 0 1 -1.12,-1.15 1.12,1.1561022 0 1 1 2.24,0 1.14686,1.18383 0 0 1 -1.12,1.18 z m 20.85,4.24 c 0,0.21 -0.31,0.4 -0.67,0.4 H 6.73 c -0.36,0 -0.67,-0.19 -0.67,-0.4 v -1.1 c 0,-0.18 0.31,-0.37 0.67,-0.37 h 16.74 c 0.36,0 0.67,0.19 0.67,0.37 z m 0,-4.93 c 0,0.22 -0.31,0.41 -0.67,0.41 H 6.73 c -0.36,0 -0.67,-0.19 -0.67,-0.41 v -0.96 c 0,-0.22 0.31,-0.37 0.67,-0.37 h 16.74 c 0.36,0 0.67,0.15 0.67,0.37 z m 0,-4.39 c 0,0.22 -0.31,0.41 -0.67,0.41 H 6.73 c -0.36,0 -0.67,-0.19 -0.67,-0.41 v -0.96 c 0,-0.19 0.31,-0.38 0.67,-0.38 h 16.74 c 0.36,0 0.67,0.19 0.67,0.38 z"
   class="st5"
   id="path52"
   inkscape:connector-curvature="0"
   style="fill:#e6e6e6;stroke:none;stroke-width:16.71080017;stroke-linecap:butt" />
				</g>
				<g
   id="shape16991-21"
   transform="translate(29.5389,-2.98926)">
					<title
   id="title55">path20</title>
					<path
   d="M 0.88,80.89 A 0.757119,0.781528 -180 0 0 0.004693,81.668211 L 0,84.63 H 27.15 V 81.7 A 0.782676,0.807908 -180 0 0 26.335424,80.953075 L 0.88,80.95 Z M 23.47,92.47 H 6.73 c -0.37,0 -0.67,0.16 -0.67,0.38 v 0.96 c 0,0.22 0.3,0.41 0.67,0.41 h 16.74 c 0.37,0 0.67,-0.19 0.67,-0.41 v -0.96 c 0,-0.22 -0.31,-0.38 -0.67,-0.38 z m 0,-4.39 H 6.73 c -0.37,0 -0.67,0.19 -0.67,0.38 v 0.96 c 0,0.22 0.3,0.41 0.67,0.41 h 16.74 c 0.37,0 0.67,-0.19 0.67,-0.41 v -0.96 c 0,-0.16 -0.31,-0.38 -0.67,-0.38 z m 0,9.31 H 6.73 c -0.37,0 -0.67,0.19 -0.67,0.38 v 0.97 c 0,0.21 0.3,0.4 0.67,0.4 h 16.74 c 0.37,0 0.67,-0.19 0.67,-0.4 v -1.1 c 0,0 -0.31,-0.24 -0.67,-0.24 z M 3.29,90.11 a 1.1189222,1.155 -180 1 0 0,-2.31 1.1189222,1.155 -180 0 0 0,2.31 z m 0,4.39 a 1.1189322,1.155 -180 1 0 0,-2.31 1.1189322,1.155 -180 0 0 0,2.31 z m 0,4.92 a 1.1189225,1.155 -180 1 0 0,-2.31 1.1189225,1.155 -180 0 0 0,2.31 z"
   class="st6"
   id="path57"
   inkscape:connector-curvature="0"
   style="fill:#666666;stroke:none;stroke-width:16.71080017;stroke-linecap:butt" />
				</g>
			</g>
		</g>
	</g>
</svg>

<?xml version="1.0" encoding="UTF-8" standalone="no"?>
<!DOCTYPE svg PUBLIC "-//W3C//DTD SVG 1.1//EN" "http://www.w3.org/Graphics/SVG/1.1/DTD/svg11.dtd">
<!-- Generated by Microsoft Visio, SVG Export Azure Firewall Policy.svg Page-1 -->
<svg xmlns="http://www.w3.org/2000/svg" xmlns:xlink="http://www.w3.org/1999/xlink" xmlns:ev="http://www.w3.org/2001/xml-events"
		width="1.41348in" height="1.38082in" viewBox="0 0 101.771 99.4193" xml:space="preserve" color-interpolation-filters="sRGB"
		class="st7">
	<style type="text/css">
	<![CDATA[
		.st1 {fill:#e62323;stroke:none;stroke-linecap:butt;stroke-width:25.7179}
		.st2 {fill:#ff7381;stroke:none;stroke-linecap:butt;stroke-width:25.7179}
		.st3 {fill:#e62323;stroke:none;stroke-linecap:butt;stroke-width:27.6595}
		.st4 {fill:#821010;stroke:none;stroke-linecap:butt;stroke-width:25.7179}
		.st5 {fill:#e6e6e6;stroke:none;stroke-linecap:butt;stroke-width:16.7108}
		.st6 {fill:#666666;stroke:none;stroke-linecap:butt;stroke-width:16.7108}
		.st7 {fill:none;fill-rule:evenodd;font-size:12px;overflow:visible;stroke-linecap:square;stroke-miterlimit:3}
	]]>
	</style>

	<g>
		<title>Page-1</title>
		<g id="group16587-1" transform="translate(25.7179,-34.0157)">
			<title>Azure Firewall Policy.16587</title>
			<g id="group16588-2">
				<title>layer1</title>
				<g id="shape16589-3" transform="translate(2.91599,-30.7318)">
					<title>path10-7</title>
					<path d="M13.66 93.15 L0.05 93.15 L0 99.38 L13.88 99.42 L13.66 93.15 L13.66 93.15 Z" class="st1"/>
				</g>
				<g id="shape16590-5" transform="translate(18.4372,-30.4848)">
					<title>path12-3</title>
					<path d="M13.79 92.9 L0.18 92.9 L0 99.1 L13.97 99.42 L13.79 92.9 L13.79 92.9 Z" class="st2"/>
				</g>
				<g id="shape16591-7" transform="translate(2.96955,-23.2929)">
					<title>path14-3</title>
					<path d="M44.9 85.71 L31.3 85.71 L31.26 92.32 L45.68 92.21 L45.09 85.71 L44.9 85.71 ZM5.67 93.57 L0 93.57 L0
								 99.42 L5.67 99.42 L5.67 93.58 L5.67 93.57 Z" class="st1"/>
				</g>
				<g id="shape16592-9" transform="translate(10.6786,-23.2929)">
					<title>path16-9</title>
					<path d="M37.2 93.57 L31.53 93.57 L31.53 99.42 L37.2 99.42 L37.2 93.58 L37.2 93.57 ZM13.6 93.57 L0 93.57 L0 99.42
								 L13.61 99.42 L13.61 93.58 L13.6 93.57 Z" class="st2"/>
				</g>
				<g id="shape16593-11" transform="translate(2.72905,-15.1657)">
					<title>path18-1</title>
					<path d="M37.2 85.45 L23.6 85.45 L23.6 91.29 L38.66 91.42 L38.04 85.43 L37.2 85.45 ZM13.83 92.94 L0.2 92.96 L0
								 99.42 L13.92 99.38 L14.27 92.94 L13.83 92.94 Z" class="st1"/>
				</g>
				<g id="shape16594-13" transform="translate(18.3485,-15.0699)">
					<title>path20-0</title>
					<path d="M13.88 93.11 L0.12 92.89 L0 99.36 L14.1 99.42 L13.88 93.11 Z" class="st2"/>
				</g>
				<g id="shape16595-15" transform="translate(33.8802,-15.1651)">
					<title>path22-5</title>
					<rect x="0" y="92.9634" width="14.2523" height="6.45589" class="st3"/>
				</g>
				<g id="shape16596-17" transform="translate(0,-12.6506)">
					<title>path8-5</title>
					<path d="M48.38 99.42 A1.90759 1.96909 -180 0 0 50.33 97.5 L50.33 74.3 A1.90759 1.96909 -180 0 0 48.38 72.38
								 L1.95 72.38 A1.90513 1.96655 -180 0 0 -0 74.3 L0 97.5 A1.90513 1.96655 -180 0 0 1.95 99.42 L48.38
								 99.42 L48.38 99.42 ZM47.87 88.77 L42.21 88.77 L42.21 82.93 L47.87 82.93 L47.87 88.78 L47.87 88.77
								 ZM34.45 75.07 L48.06 75.07 L48.06 81.11 L34.45 81.11 L34.45 75.07 L34.45 75.07 ZM40.12 82.93 L40.12
								 88.77 L26.33 88.77 L26.33 82.93 L40.12 82.93 L40.12 82.93 ZM18.62 75.07 L32.22 75.07 L32.22 81.11
								 L18.62 81.11 L18.62 75.07 ZM24.28 82.93 L24.28 88.77 L10.68 88.77 L10.68 82.93 L24.28 82.93 L24.28
								 82.93 ZM2.97 75.07 L16.58 75.07 L16.58 81.11 L2.97 81.11 L2.97 75.07 ZM2.97 82.93 L8.59 82.93 L8.59
								 88.77 L2.97 88.77 L2.97 82.93 L2.97 82.93 ZM16.58 96.68 L2.97 96.68 L2.97 90.69 L16.58 90.69 L16.58
								 96.68 ZM32.22 96.68 L18.62 96.68 L18.62 90.69 L32.22 90.69 L32.22 96.68 ZM34.27 96.68 L34.27 90.69
								 L47.87 90.69 L47.87 96.59 L34.27 96.68 Z" class="st4"/>
				</g>
				<g id="shape16597-19" transform="translate(29.5389,-1.98952E-13)">
					<title>path18</title>
					<path d="M27.15 78.71 L27.15 81.67 L0 81.67 L0 98.61 a0.814622 0.840884 -180 0 0 0.844942 0.809555 L26.22 99.42
								 a0.843373 0.870563 -180 0 0 0.875307 -0.807933 L27.09 78.71 L27.15 78.71 L27.15 78.71 ZM2.17 85.97
								 A1.11811 1.15415 0 1 1 3.29 87.12 A1.14526 1.18218 0 0 1 2.17 85.97 ZM3.29 96.43 A1.11651 1.15251
								 0 1 1 4.41 95.28 A1.14686 1.18383 0 0 1 3.29 96.43 L3.29 96.43 ZM3.29 91.51 A1.14526 1.18218 0 0
								 1 2.17 90.36 A1.11652 1.15251 0 1 1 4.41 90.36 A1.14686 1.18383 0 0 1 3.29 91.54 L3.29 91.51 L3.29
								 91.51 ZM24.14 95.75 C24.14 95.96 23.83 96.15 23.47 96.15 L6.73 96.15 C6.37 96.15 6.06 95.96 6.06
								 95.75 L6.06 94.65 C6.06 94.47 6.37 94.28 6.73 94.28 L23.47 94.28 C23.83 94.28 24.14 94.47 24.14
								 94.65 L24.14 95.75 ZM24.14 90.82 C24.14 91.04 23.83 91.23 23.47 91.23 L6.73 91.23 C6.37 91.23 6.06
								 91.04 6.06 90.82 L6.06 89.86 C6.06 89.64 6.37 89.49 6.73 89.49 L23.47 89.49 C23.83 89.49 24.14 89.64
								 24.14 89.86 L24.14 90.82 ZM24.14 86.43 C24.14 86.65 23.83 86.84 23.47 86.84 L6.73 86.84 C6.37 86.84
								 6.06 86.65 6.06 86.43 L6.06 85.47 C6.06 85.28 6.37 85.09 6.73 85.09 L23.47 85.09 C23.83 85.09 24.14
								 85.28 24.14 85.47 L24.14 86.43 Z" class="st5"/>
				</g>
				<g id="shape16598-21" transform="translate(29.5389,-2.98926)">
					<title>path20</title>
					<path d="M0.88 80.89 a0.757119 0.781528 -180 0 0 -0.875307 0.778211 L0 84.63 L27.15 84.63 L27.15 81.7 a0.782676
								 0.807908 -180 0 0 -0.814576 -0.746925 L0.88 80.95 L0.88 80.89 ZM23.47 92.47 L6.73 92.47 C6.36 92.47
								 6.06 92.63 6.06 92.85 L6.06 93.81 C6.06 94.03 6.36 94.22 6.73 94.22 L23.47 94.22 C23.84 94.22 24.14
								 94.03 24.14 93.81 L24.14 92.85 C24.14 92.63 23.83 92.47 23.47 92.47 L23.47 92.47 ZM23.47 88.08 L6.73
								 88.08 C6.36 88.08 6.06 88.27 6.06 88.46 L6.06 89.42 C6.06 89.64 6.36 89.83 6.73 89.83 L23.47 89.83
								 C23.84 89.83 24.14 89.64 24.14 89.42 L24.14 88.46 C24.14 88.3 23.83 88.08 23.47 88.08 L23.47 88.08
								 ZM23.47 97.39 L6.73 97.39 C6.36 97.39 6.06 97.58 6.06 97.77 L6.06 98.74 C6.06 98.95 6.36 99.14 6.73
								 99.14 L23.47 99.14 C23.84 99.14 24.14 98.95 24.14 98.74 L24.14 97.64 C24.14 97.64 23.83 97.4 23.47
								 97.4 L23.47 97.39 ZM3.29 90.11 A1.11651 1.15251 -180 1 0 3.29 87.8 A1.11651 1.15251 -180 0 0 3.29
								 90.11 ZM3.29 94.5 A1.11652 1.15251 -180 1 0 3.29 92.19 A1.11652 1.15251 -180 0 0 3.29 94.5 ZM3.29
								 99.42 A1.11652 1.15252 -180 1 0 3.29 97.11 A1.11652 1.15252 -180 0 0 3.29 99.42 Z" class="st6"/>
				</g>
			</g>
		</g>
	</g>
</svg>
